src/Static/Positions/ks-position-43.svg

<?xml version="1.0" encoding="UTF-8"?>
<svg width="156px" height="116px" viewBox="0 0 156 116" version="1.1" xmlns="http://www.w3.org/2000/svg" xmlns:xlink="http://www.w3.org/1999/xlink">
    <title>sex-etsy-43</title>
    <defs>
        <path d="M92.6676179,62.5335172 L98.8970109,61.1994698 C99.2002691,61.1348646 99.5095886,61.0899008 99.8169939,61.0661497 C102.720565,60.8416328 105.41352,62.4910917 106.457665,65 C108.796765,58.1673133 111.593848,54.4819727 114.218151,51.8902076 L109.551497,42.2437773 C108.261709,39.5776165 109.502305,36.4147989 112.316742,35.1934028 C113.058203,34.8720687 113.843943,34.7094375 114.653291,34.7094375 C116.842772,34.7094375 118.847224,35.9272679 119.760061,37.8123637 L122.179873,42.8143463 C124.930315,35.1418516 120.381061,29.8905736 114.209601,29 C110.28511,32.9537335 107.179601,33.1157603 104.813384,33.2892095 C102.293145,32.7089708 99.7122286,32.2001061 98.0970424,32.1113267 C97.9421274,31.7033889 97.5341039,31.4099154 97.0500266,31.4099154 C96.4334293,31.4099154 95.933465,31.8834255 95.933465,32.467532 C95.933465,32.5101388 95.9415042,32.5506305 95.9467361,32.5919077 C92.0886647,34.7652796 88.5270245,41.0773772 97.5529898,44.068317 C94.8961473,50.5820266 91.8430849,55.5785096 89,59.4043016 L92.4439865,62.3237465 C92.5229753,62.3907088 92.5919469,62.4642584 92.6676179,62.5335172 Z" id="path-1"></path>
        <filter x="-24.6%" y="-16.7%" width="148.1%" height="149.5%" filterUnits="objectBoundingBox" id="filter-2">
            <feMorphology radius="1" operator="dilate" in="SourceAlpha" result="shadowSpreadOuter1"></feMorphology>
            <feOffset dx="0" dy="2" in="shadowSpreadOuter1" result="shadowOffsetOuter1"></feOffset>
            <feGaussianBlur stdDeviation="2" in="shadowOffsetOuter1" result="shadowBlurOuter1"></feGaussianBlur>
            <feComposite in="shadowBlurOuter1" in2="SourceAlpha" operator="out" result="shadowBlurOuter1"></feComposite>
            <feColorMatrix values="0 0 0 0 0   0 0 0 0 0   0 0 0 0 0  0 0 0 0.5 0" type="matrix" in="shadowBlurOuter1"></feColorMatrix>
        </filter>
        <path d="M88,77.1477653 C93.973221,80.7707253 102.52814,82.3873334 105,73 C104.268101,73.544431 103.397843,73.9516513 102.41861,74.1549786 L88,77.1477653 Z" id="path-3"></path>
        <filter x="-48.8%" y="-92.6%" width="194.8%" height="328.3%" filterUnits="objectBoundingBox" id="filter-4">
            <feMorphology radius="0.5" operator="dilate" in="SourceAlpha" result="shadowSpreadOuter1"></feMorphology>
            <feOffset dx="0" dy="2" in="shadowSpreadOuter1" result="shadowOffsetOuter1"></feOffset>
            <feGaussianBlur stdDeviation="2" in="shadowOffsetOuter1" result="shadowBlurOuter1"></feGaussianBlur>
            <feComposite in="shadowBlurOuter1" in2="SourceAlpha" operator="out" result="shadowBlurOuter1"></feComposite>
            <feColorMatrix values="0 0 0 0 0   0 0 0 0 0   0 0 0 0 0  0 0 0 0.5 0" type="matrix" in="shadowBlurOuter1"></feColorMatrix>
        </filter>
        <path d="M136.935063,31.8524573 C142.911118,35.4184691 131.471254,45.8016493 134.530092,53.3880455 C138.046459,62.1091592 147.326278,60.0510648 144.448805,59.0428723 C141.571264,58.0346799 138.79213,55.1610946 143.675912,45.9579841 C148.627068,36.6279236 144.75505,31.7746238 140.537179,29 C139.524122,30.0854188 138.318744,31.0505661 136.935063,31.8524573 Z" id="path-5"></path>
        <filter x="-66.5%" y="-20.3%" width="233.2%" height="152.6%" filterUnits="objectBoundingBox" id="filter-6">
            <feMorphology radius="1" operator="dilate" in="SourceAlpha" result="shadowSpreadOuter1"></feMorphology>
            <feOffset dx="0" dy="2" in="shadowSpreadOuter1" result="shadowOffsetOuter1"></feOffset>
            <feGaussianBlur stdDeviation="2" in="shadowOffsetOuter1" result="shadowBlurOuter1"></feGaussianBlur>
            <feComposite in="shadowBlurOuter1" in2="SourceAlpha" operator="out" result="shadowBlurOuter1"></feComposite>
            <feColorMatrix values="0 0 0 0 0   0 0 0 0 0   0 0 0 0 0  0 0 0 0.5 0" type="matrix" in="shadowBlurOuter1"></feColorMatrix>
        </filter>
        <ellipse id="path-7" cx="130.456124" cy="18.9822338" rx="13.4404725" ry="13.4275276"></ellipse>
        <filter x="-29.8%" y="-22.3%" width="159.5%" height="159.6%" filterUnits="objectBoundingBox" id="filter-8">
            <feMorphology radius="1" operator="dilate" in="SourceAlpha" result="shadowSpreadOuter1"></feMorphology>
            <feOffset dx="0" dy="2" in="shadowSpreadOuter1" result="shadowOffsetOuter1"></feOffset>
            <feGaussianBlur stdDeviation="2" in="shadowOffsetOuter1" result="shadowBlurOuter1"></feGaussianBlur>
            <feComposite in="shadowBlurOuter1" in2="SourceAlpha" operator="out" result="shadowBlurOuter1"></feComposite>
            <feColorMatrix values="0 0 0 0 0   0 0 0 0 0   0 0 0 0 0  0 0 0 0.5 0" type="matrix" in="shadowBlurOuter1"></feColorMatrix>
        </filter>
        <path d="M8.01625949,111 L50.9834103,111 C54.2607137,111 57.2079396,109.045859 58.4260263,106.065335 C59.6434717,103.08456 58.886352,99.6783194 56.5140522,97.463421 L30.5116151,73.1896825 C37.9022216,68.5545338 46.5640144,65.2449069 52.9915154,62.5526548 L49.5162425,59.4759569 C48.207027,58.3173425 47.4373378,56.728425 47.3482611,55.002376 C47.2589921,53.2762641 47.8618148,51.6194405 49.0448864,50.3375144 C49.9579063,49.3475034 51.1448257,48.6751628 52.4520532,48.3792274 L39.565371,43 C29.0879274,46.2981941 22.1461032,50.2811039 12.6170153,58.3769567 C5.21717407,65.7000858 8.32934252,72.011783 11.7029693,76.7260823 C11.9630167,77.0896726 12.2143425,77.4333497 12.4609227,77.7600031 C12.6640226,78.0585768 12.8896322,78.3457177 13.1386493,78.6202322 C13.7571839,79.3661326 14.3599425,79.9710067 14.9970106,80.4009328 L30.9521887,95.2955105 L8.01625949,95.2955105 C3.58916796,95.2955105 0,98.8112431 0,103.147755 C0,107.484267 3.58916796,111 8.01625949,111 Z" id="path-9"></path>
        <filter x="-13.6%" y="-8.9%" width="127.1%" height="123.6%" filterUnits="objectBoundingBox" id="filter-10">
            <feMorphology radius="1" operator="dilate" in="SourceAlpha" result="shadowSpreadOuter1"></feMorphology>
            <feOffset dx="0" dy="2" in="shadowSpreadOuter1" result="shadowOffsetOuter1"></feOffset>
            <feGaussianBlur stdDeviation="2" in="shadowOffsetOuter1" result="shadowBlurOuter1"></feGaussianBlur>
            <feComposite in="shadowBlurOuter1" in2="SourceAlpha" operator="out" result="shadowBlurOuter1"></feComposite>
            <feColorMatrix values="0 0 0 0 0   0 0 0 0 0   0 0 0 0 0  0 0 0 0.5 0" type="matrix" in="shadowBlurOuter1"></feColorMatrix>
        </filter>
        <path d="M86.5848653,58 C90.7869158,54.0881882 92.26684,47.7701056 89.8106646,42.2088205 C86.7283886,35.2299157 78.6184676,32.0917479 71.6979488,35.2000348 C69.3140839,36.270643 67.3825551,37.9426806 66,39.9596394 C66.7659048,40.2959529 67.4694983,40.7482239 68.0903555,41.3091358 L86.5848653,58 Z" id="path-11"></path>
        <filter x="-34.0%" y="-25.0%" width="166.0%" height="168.1%" filterUnits="objectBoundingBox" id="filter-12">
            <feMorphology radius="1" operator="dilate" in="SourceAlpha" result="shadowSpreadOuter1"></feMorphology>
            <feOffset dx="0" dy="2" in="shadowSpreadOuter1" result="shadowOffsetOuter1"></feOffset>
            <feGaussianBlur stdDeviation="2" in="shadowOffsetOuter1" result="shadowBlurOuter1"></feGaussianBlur>
            <feComposite in="shadowBlurOuter1" in2="SourceAlpha" operator="out" result="shadowBlurOuter1"></feComposite>
            <feColorMatrix values="0 0 0 0 0   0 0 0 0 0   0 0 0 0 0  0 0 0 0.5 0" type="matrix" in="shadowBlurOuter1"></feColorMatrix>
        </filter>
        <path d="M75.042303,65 L91,61.4953192 L66.3525258,40.0675274 C65.8101011,39.5957352 65.1908038,39.2132942 64.5207236,38.935744 L27.2797282,23.5197115 C23.8937792,22.1183942 19.9778473,23.6482813 18.5352959,26.9380626 C17.0921732,30.2278439 18.6673314,34.0309174 22.0539152,35.4328514 L58.2826172,50.4297528 L75.042303,65 Z" id="path-13"></path>
        <filter x="-11.0%" y="-14.3%" width="123.5%" height="138.3%" filterUnits="objectBoundingBox" id="filter-14">
            <feMorphology radius="1" operator="dilate" in="SourceAlpha" result="shadowSpreadOuter1"></feMorphology>
            <feOffset dx="0" dy="2" in="shadowSpreadOuter1" result="shadowOffsetOuter1"></feOffset>
            <feGaussianBlur stdDeviation="2" in="shadowOffsetOuter1" result="shadowBlurOuter1"></feGaussianBlur>
            <feComposite in="shadowBlurOuter1" in2="SourceAlpha" operator="out" result="shadowBlurOuter1"></feComposite>
            <feColorMatrix values="0 0 0 0 0   0 0 0 0 0   0 0 0 0 0  0 0 0 0.5 0" type="matrix" in="shadowBlurOuter1"></feColorMatrix>
        </filter>
        <path d="M73.4506602,67.9977798 L55.551068,51.3590269 C53.4540524,49.4094856 50.216613,49.5771683 48.3215375,51.7349309 C46.4256941,53.8920354 46.5890505,57.2213391 48.686642,59.1708145 L68.5566854,77.6410465 C69.6120077,78.6222006 71.0078639,79.0998461 72.4047439,78.9825735 C72.6432839,78.9625016 72.8811202,78.9254509 73.1175487,78.8704999 L102.008605,72.1527956 C104.766341,71.5114818 106.496204,68.6924651 105.872916,65.8564038 C105.249755,63.0209348 102.510511,61.2420376 99.751368,61.8822326 L73.4506602,67.9977798 Z" id="path-15"></path>
        <filter x="-13.6%" y="-20.7%" width="127.1%" height="155.2%" filterUnits="objectBoundingBox" id="filter-16">
            <feMorphology radius="1" operator="dilate" in="SourceAlpha" result="shadowSpreadOuter1"></feMorphology>
            <feOffset dx="0" dy="2" in="shadowSpreadOuter1" result="shadowOffsetOuter1"></feOffset>
            <feGaussianBlur stdDeviation="2" in="shadowOffsetOuter1" result="shadowBlurOuter1"></feGaussianBlur>
            <feComposite in="shadowBlurOuter1" in2="SourceAlpha" operator="out" result="shadowBlurOuter1"></feComposite>
            <feColorMatrix values="0 0 0 0 0   0 0 0 0 0   0 0 0 0 0  0 0 0 0.5 0" type="matrix" in="shadowBlurOuter1"></feColorMatrix>
        </filter>
        <path d="M117.997484,37.3813662 C117.032752,35.3325908 114.548911,34.4335954 112.444557,35.371511 C110.341427,36.3103683 109.418259,38.7321506 110.381702,40.7809261 L131.002516,84.6186446 C131.707361,86.1162588 133.225182,87 134.81292,87 C135.39694,87 135.989724,86.8804771 136.555443,86.6281859 C138.658573,85.6893286 139.581741,83.2675463 138.618298,81.2190847 L117.997484,37.3813662 Z" id="path-17"></path>
        <filter x="-27.6%" y="-11.5%" width="155.2%" height="130.8%" filterUnits="objectBoundingBox" id="filter-18">
            <feMorphology radius="1" operator="dilate" in="SourceAlpha" result="shadowSpreadOuter1"></feMorphology>
            <feOffset dx="0" dy="2" in="shadowSpreadOuter1" result="shadowOffsetOuter1"></feOffset>
            <feGaussianBlur stdDeviation="2" in="shadowOffsetOuter1" result="shadowBlurOuter1"></feGaussianBlur>
            <feComposite in="shadowBlurOuter1" in2="SourceAlpha" operator="out" result="shadowBlurOuter1"></feComposite>
            <feColorMatrix values="0 0 0 0 0   0 0 0 0 0   0 0 0 0 0  0 0 0 0.5 0" type="matrix" in="shadowBlurOuter1"></feColorMatrix>
        </filter>
    </defs>
    <g id="Page-2" stroke="none" stroke-width="1" fill="none" fill-rule="evenodd">
        <g id="sex-etsy-43" transform="translate(5.000000, -2.000000)" fill-rule="nonzero">
            <polygon id="Path" fill="#4E4E50" points="114.225083 82.467815 80.3614518 82.467815 80.3614518 85.58966 82.0585821 85.58966 77 114.453677 80.0296709 115 84.7285876 88.1911559 112.31171 88.1911559 117.010688 115 120.040359 114.453677 114.981715 85.58966 116.670413 85.58966 121 66.6438693 118.902086 62"></polygon>
            <polygon id="Path" fill="#000000" points="128 38.6718443 124.26287 38 122 45.573231 124.615017 50"></polygon>
            <g id="Path">
                <use fill="black" fill-opacity="1" filter="url(#filter-2)" xlink:href="#path-1"></use>
                <use stroke="#1A1A1D" stroke-width="2" fill="#6F2232" xlink:href="#path-1"></use>
            </g>
            <g id="Path">
                <use fill="black" fill-opacity="1" filter="url(#filter-4)" xlink:href="#path-3"></use>
                <use stroke="#1A1A1D" stroke-width="1" fill="#6F2232" xlink:href="#path-3"></use>
            </g>
            <g id="Path">
                <use fill="black" fill-opacity="1" filter="url(#filter-6)" xlink:href="#path-5"></use>
                <use stroke="#1A1A1D" stroke-width="2" fill="#6F2232" xlink:href="#path-5"></use>
            </g>
            <g id="Oval" transform="translate(130.456124, 18.982234) rotate(-41.854331) translate(-130.456124, -18.982234) ">
                <use fill="black" fill-opacity="1" filter="url(#filter-8)" xlink:href="#path-7"></use>
                <use stroke="#1A1A1D" stroke-width="2" fill="#6F2232" xlink:href="#path-7"></use>
            </g>
            <g id="Path">
                <use fill="black" fill-opacity="1" filter="url(#filter-10)" xlink:href="#path-9"></use>
                <use stroke="#1A1A1D" stroke-width="2" fill="#4E4E50" xlink:href="#path-9"></use>
            </g>
            <g id="Path">
                <use fill="black" fill-opacity="1" filter="url(#filter-12)" xlink:href="#path-11"></use>
                <use stroke="#1A1A1D" stroke-width="2" fill="#4E4E50" xlink:href="#path-11"></use>
            </g>
            <g id="Path">
                <use fill="black" fill-opacity="1" filter="url(#filter-14)" xlink:href="#path-13"></use>
                <use stroke="#1A1A1D" stroke-width="2" fill="#6F2232" xlink:href="#path-13"></use>
            </g>
            <g id="Path">
                <use fill="black" fill-opacity="1" filter="url(#filter-16)" xlink:href="#path-15"></use>
                <use stroke="#1A1A1D" stroke-width="2" fill="#4E4E50" xlink:href="#path-15"></use>
            </g>
            <g id="Path">
                <use fill="black" fill-opacity="1" filter="url(#filter-18)" xlink:href="#path-17"></use>
                <use stroke="#1A1A1D" stroke-width="2" fill="#6F2232" xlink:href="#path-17"></use>
            </g>
        </g>
    </g>
</svg>

<svg xmlns="http://www.w3.org/2000/svg" xmlns:xlink="http://www.w3.org/1999/xlink" width="156" height="116"><defs><filter id="i" width="127.1%" height="123.6%" x="-13.6%" y="-8.9%" filterUnits="objectBoundingBox"><feMorphology in="SourceAlpha" operator="dilate" radius="1" result="shadowSpreadOuter1"/><feOffset dy="2" in="shadowSpreadOuter1" result="shadowOffsetOuter1"/><feGaussianBlur in="shadowOffsetOuter1" result="shadowBlurOuter1" stdDeviation="2"/><feComposite in="shadowBlurOuter1" in2="SourceAlpha" operator="out" result="shadowBlurOuter1"/><feColorMatrix in="shadowBlurOuter1" values="0 0 0 0 0 0 0 0 0 0 0 0 0 0 0 0 0 0 0.5 0"/></filter><filter id="q" width="155.2%" height="130.8%" x="-27.6%" y="-11.5%" filterUnits="objectBoundingBox"><feMorphology in="SourceAlpha" operator="dilate" radius="1" result="shadowSpreadOuter1"/><feOffset dy="2" in="shadowSpreadOuter1" result="shadowOffsetOuter1"/><feGaussianBlur in="shadowOffsetOuter1" result="shadowBlurOuter1" stdDeviation="2"/><feComposite in="shadowBlurOuter1" in2="SourceAlpha" operator="out" result="shadowBlurOuter1"/><feColorMatrix in="shadowBlurOuter1" values="0 0 0 0 0 0 0 0 0 0 0 0 0 0 0 0 0 0 0.5 0"/></filter><filter id="o" width="127.1%" height="155.2%" x="-13.6%" y="-20.7%" filterUnits="objectBoundingBox"><feMorphology in="SourceAlpha" operator="dilate" radius="1" result="shadowSpreadOuter1"/><feOffset dy="2" in="shadowSpreadOuter1" result="shadowOffsetOuter1"/><feGaussianBlur in="shadowOffsetOuter1" result="shadowBlurOuter1" stdDeviation="2"/><feComposite in="shadowBlurOuter1" in2="SourceAlpha" operator="out" result="shadowBlurOuter1"/><feColorMatrix in="shadowBlurOuter1" values="0 0 0 0 0 0 0 0 0 0 0 0 0 0 0 0 0 0 0.5 0"/></filter><filter id="c" width="194.8%" height="328.3%" x="-48.8%" y="-92.6%" filterUnits="objectBoundingBox"><feMorphology in="SourceAlpha" operator="dilate" radius=".5" result="shadowSpreadOuter1"/><feOffset dy="2" in="shadowSpreadOuter1" result="shadowOffsetOuter1"/><feGaussianBlur in="shadowOffsetOuter1" result="shadowBlurOuter1" stdDeviation="2"/><feComposite in="shadowBlurOuter1" in2="SourceAlpha" operator="out" result="shadowBlurOuter1"/><feColorMatrix in="shadowBlurOuter1" values="0 0 0 0 0 0 0 0 0 0 0 0 0 0 0 0 0 0 0.5 0"/></filter><filter id="m" width="123.5%" height="138.3%" x="-11%" y="-14.3%" filterUnits="objectBoundingBox"><feMorphology in="SourceAlpha" operator="dilate" radius="1" result="shadowSpreadOuter1"/><feOffset dy="2" in="shadowSpreadOuter1" result="shadowOffsetOuter1"/><feGaussianBlur in="shadowOffsetOuter1" result="shadowBlurOuter1" stdDeviation="2"/><feComposite in="shadowBlurOuter1" in2="SourceAlpha" operator="out" result="shadowBlurOuter1"/><feColorMatrix in="shadowBlurOuter1" values="0 0 0 0 0 0 0 0 0 0 0 0 0 0 0 0 0 0 0.5 0"/></filter><filter id="e" width="233.2%" height="152.6%" x="-66.5%" y="-20.3%" filterUnits="objectBoundingBox"><feMorphology in="SourceAlpha" operator="dilate" radius="1" result="shadowSpreadOuter1"/><feOffset dy="2" in="shadowSpreadOuter1" result="shadowOffsetOuter1"/><feGaussianBlur in="shadowOffsetOuter1" result="shadowBlurOuter1" stdDeviation="2"/><feComposite in="shadowBlurOuter1" in2="SourceAlpha" operator="out" result="shadowBlurOuter1"/><feColorMatrix in="shadowBlurOuter1" values="0 0 0 0 0 0 0 0 0 0 0 0 0 0 0 0 0 0 0.5 0"/></filter><filter id="k" width="166%" height="168.1%" x="-34%" y="-25%" filterUnits="objectBoundingBox"><feMorphology in="SourceAlpha" operator="dilate" radius="1" result="shadowSpreadOuter1"/><feOffset dy="2" in="shadowSpreadOuter1" result="shadowOffsetOuter1"/><feGaussianBlur in="shadowOffsetOuter1" result="shadowBlurOuter1" stdDeviation="2"/><feComposite in="shadowBlurOuter1" in2="SourceAlpha" operator="out" result="shadowBlurOuter1"/><feColorMatrix in="shadowBlurOuter1" values="0 0 0 0 0 0 0 0 0 0 0 0 0 0 0 0 0 0 0.5 0"/></filter><filter id="g" width="159.5%" height="159.6%" x="-29.8%" y="-22.3%" filterUnits="objectBoundingBox"><feMorphology in="SourceAlpha" operator="dilate" radius="1" result="shadowSpreadOuter1"/><feOffset dy="2" in="shadowSpreadOuter1" result="shadowOffsetOuter1"/><feGaussianBlur in="shadowOffsetOuter1" result="shadowBlurOuter1" stdDeviation="2"/><feComposite in="shadowBlurOuter1" in2="SourceAlpha" operator="out" result="shadowBlurOuter1"/><feColorMatrix in="shadowBlurOuter1" values="0 0 0 0 0 0 0 0 0 0 0 0 0 0 0 0 0 0 0.5 0"/></filter><filter id="a" width="148.1%" height="149.5%" x="-24.6%" y="-16.7%" filterUnits="objectBoundingBox"><feMorphology in="SourceAlpha" operator="dilate" radius="1" result="shadowSpreadOuter1"/><feOffset dy="2" in="shadowSpreadOuter1" result="shadowOffsetOuter1"/><feGaussianBlur in="shadowOffsetOuter1" result="shadowBlurOuter1" stdDeviation="2"/><feComposite in="shadowBlurOuter1" in2="SourceAlpha" operator="out" result="shadowBlurOuter1"/><feColorMatrix in="shadowBlurOuter1" values="0 0 0 0 0 0 0 0 0 0 0 0 0 0 0 0 0 0 0.5 0"/></filter><path id="j" d="M8.02 111h42.96a8.02 8.02 0 007.45-4.93 7.74 7.74 0 00-1.92-8.6l-26-24.28c7.4-4.64 16.05-7.95 22.48-10.64l-3.47-3.07a6.37 6.37 0 01-.48-9.14 6.6 6.6 0 013.41-1.96L39.57 43c-10.48 3.3-17.42 7.28-26.95 15.38-7.4 7.32-4.3 13.63-.92 18.35a49.88 49.88 0 001.44 1.89A9.18 9.18 0 0015 80.4l15.95 14.9H8.02A7.94 7.94 0 000 103.15 7.94 7.94 0 008.02 111z"/><path id="l" d="M86.58 58a13.92 13.92 0 003.23-15.8A13.67 13.67 0 0066 39.97c.77.34 1.47.79 2.09 1.35L86.59 58z"/><path id="n" d="M75.04 65L91 61.5 66.35 40.07a6.7 6.7 0 00-1.83-1.13L27.28 23.52a6.74 6.74 0 00-8.74 3.42 6.4 6.4 0 003.51 8.5l36.23 14.99L75.04 65z"/><path id="f" d="M136.94 31.85c5.97 3.57-5.47 13.95-2.41 21.54 3.52 8.72 12.8 6.66 9.92 5.65-2.88-1-5.66-3.88-.77-13.08 4.95-9.33 1.08-14.19-3.14-16.96a15.64 15.64 0 01-3.6 2.85z"/><path id="p" d="M73.45 68l-17.9-16.64a5.02 5.02 0 00-7.23.37 5.37 5.37 0 00.37 7.44l19.87 18.47a5.03 5.03 0 004.56 1.23L102 72.15a5.27 5.27 0 003.86-6.3 5.12 5.12 0 00-6.12-3.97L73.45 68z"/><path id="d" d="M88 77.15c5.97 3.62 14.53 5.24 17-4.15-.73.54-1.6.95-2.58 1.15l-14.42 3z"/><path id="r" d="M118 37.38a4.24 4.24 0 00-5.56-2 4.04 4.04 0 00-2.06 5.4L131 84.62a4.2 4.2 0 005.56 2 4.04 4.04 0 002.06-5.4L118 37.38z"/><path id="b" d="M92.67 62.53l6.23-1.33a6.64 6.64 0 017.56 3.8c2.34-6.83 5.13-10.52 7.76-13.11l-4.67-9.65a5.21 5.21 0 012.77-7.05 5.84 5.84 0 012.33-.48c2.2 0 4.2 1.22 5.11 3.1l2.42 5c2.75-7.67-1.8-12.92-7.97-13.81-3.92 3.95-7.03 4.12-9.4 4.29a46.8 46.8 0 00-6.71-1.18c-.16-.4-.57-.7-1.05-.7-.62 0-1.12.47-1.12 1.06 0 .04.01.08.02.12-3.86 2.18-7.42 8.49 1.6 11.48A69.46 69.46 0 0189 59.4l3.44 2.92c.08.07.15.14.23.21z"/><ellipse id="h" cx="130.456" cy="18.982" rx="13.44" ry="13.428"/></defs><g fill="none" fill-rule="nonzero"><path fill="#4E4E50" d="M119.23 80.47H85.36v3.12h1.7L82 112.45l3.03.55 4.7-26.8h27.58l4.7 26.8 3.03-.55-5.06-28.86h1.69L126 64.64 123.9 60z"/><path fill="#000" d="M133 36.67l-3.74-.67-2.26 7.57 2.62 4.43z"/><g transform="translate(5 -2)"><use fill="#000" filter="url(#a)" xlink:href="#b"/><use fill="#6F2232" stroke="#1A1A1D" stroke-width="2" xlink:href="#b"/></g><g transform="translate(5 -2)"><use fill="#000" filter="url(#c)" xlink:href="#d"/><use fill="#6F2232" stroke="#1A1A1D" xlink:href="#d"/></g><g transform="translate(5 -2)"><use fill="#000" filter="url(#e)" xlink:href="#f"/><use fill="#6F2232" stroke="#1A1A1D" stroke-width="2" xlink:href="#f"/></g><g transform="rotate(-41.854 130.341 11.445)"><use fill="#000" filter="url(#g)" xlink:href="#h"/><use fill="#6F2232" stroke="#1A1A1D" stroke-width="2" xlink:href="#h"/></g><g transform="translate(5 -2)"><use fill="#000" filter="url(#i)" xlink:href="#j"/><use fill="#4E4E50" stroke="#1A1A1D" stroke-width="2" xlink:href="#j"/></g><g transform="translate(5 -2)"><use fill="#000" filter="url(#k)" xlink:href="#l"/><use fill="#4E4E50" stroke="#1A1A1D" stroke-width="2" xlink:href="#l"/></g><g transform="translate(5 -2)"><use fill="#000" filter="url(#m)" xlink:href="#n"/><use fill="#6F2232" stroke="#1A1A1D" stroke-width="2" xlink:href="#n"/></g><g transform="translate(5 -2)"><use fill="#000" filter="url(#o)" xlink:href="#p"/><use fill="#4E4E50" stroke="#1A1A1D" stroke-width="2" xlink:href="#p"/></g><g transform="translate(5 -2)"><use fill="#000" filter="url(#q)" xlink:href="#r"/><use fill="#6F2232" stroke="#1A1A1D" stroke-width="2" xlink:href="#r"/></g></g></svg>
